X:1
T:1 . A Cradle Song
T:1 . A Cradle Song 
T:William Blake
T:Benjamin Britten
T:op. 41
C:Benjamin Britten
Z:op. 41
%%score 1 { 2 | 3 }
L:1/8
Q:1/4=112
M:4/4
K:Eb
V:1 treble nm="Voice"
V:2 treble nm="Piano"
V:3 bass 
V:1
 z8 | z2 G4 F2- | F2 EE D4 | CCDE FG A2 | G6 z2 | z2 B4 A2- | A2 GG ^F4 | GGGG d3 c | B8 | %9
 z2 B2 _d4 | _c2 B2 E4 | EE B4 =AA | B6 z2 | B,B, A3 B,B,B, | _G4 _F2 G2 | A2 B2 _c2 A2 | %16
 =G4 z2 GG | GGGG G2 GG | GG G4 G2 | G4 z2 GG | GGGG G4- | G6 =e2- | e2 d2 c2 =B2 | =A2 G2 ^F4 | %24
 ^FF =c3 FFF | =B4 B2 =A2 | G2 F2 =E2 F2 | G8 | z2 G4 F2 | EE F4 E2 | D4 C2 D2 | E2- EE FG A2- | %32
 A4 _c4 | B8 | z8 | z8 |] %36
V:2
 z2 z2 z2 BA | ED/E/ FE DC/D/ ED | B,C/B,/ _D/C/A,/B,/ C=B, =A,G,/A,/ | %3
 _B,=A,/B,/ C/B,/C/D/ EF _GA/G/ | FE DC/D/ E/F/G/A/ BA | GF/G/ AG FE/F/ _GF | %6
 ED/E/ F/E/C/D/ =E^D ^CD/E/ | F/^F/G/A/ =A/B/=B/c/ c=B =AB/A/ | _AG F=E/F/ G/A/B/c/ =dc | %9
 BA _GA/B/ _cB AG/A/ | BA/_G/ A/G/F/E/ _D_C/B,/ _A,B,/C/ | _D/E/F/_G/ A=G FE/F/ =GF/G/ | %12
 A/B/_c/B/ A_G FE DC/B,/ | A,/_D/E/A/ _GF E/_D/_C/B,/ A,/C/E/_G/ | _FE _D_C/D/ E=D/E/ _FE/F/ | %15
 _G_F/G/ AG/A/ B/_c/_d/c/ BA/G/ | F=E/F/ EF/G/ FE/F/ G/=B/d/g/ | fd/c/ =A/c/d/f/ =ec/=B/ G/B/c/e/ | %18
 c/=B/c/_B/ c/B/c/B/ =e/f/g/f/ e/=c/B/G/ | F=E/F/ EF/G/ FE/F/ G/=B/d/g/ | %20
 fd/c/ =A/c/d/=b/ =af/=e/ d/f/a/d'/ | c'/=b/=a/g/ fg/f/ =ee c=B/c/ | dc/=B/ cB/=A/ _BA/G/ AG/F/ | %23
 GF/=E/ FE/D/ E/D/^C/=B,/ =A,/B,/C/D/ | =E/^F/G/=A/ _BA/G/ FE/F/ EF/G/ | %25
 =A/=B/^c/d/ c/B/A/G/ AG/^F/ GF/=E/ | =F_E/D/ ED/=C/ D/C/=B,/C/ D/=E/^F/G/ | %27
 _A_B/_c/ BA/B/ cB/A/ GF | ED/E/ FE DC/D/ E/D/B,/C/ | _DC/D/ E=D CB,/C/ D/C/A,/B,/ | %30
 C=B, =A,G,/B,/ _B,A,/B,/ CB,/C/ | _DC B,C/D/ E/D/E/D/ _GF | _GA/G/ FG/A/ __BA B_c/B/ | %33
 A=G FG/A/ GF GA/G/ | FG AG/F/ GA/B/ c/d/e/f/ | f8 |] %36
V:3
 B,,2 E,,2 B,,2 E,,2 | B,,2 E,,2 B,,2 E,,2 | B,,2 E,,2 B,,2 E,,2 | B,,2 E,,2 B,,2 E,,2 | %4
 B,,2 E,,2 B,,2 E,,2 | =B,,2 E,,2 B,,2 E,,2 | C,2 E,,2 _D,2 E,,2 | =D,2 E,,2 =E,2 _E,,2 | %8
 F,2 E,,2 F,2 E,,2 | _G,2 _D,,2 F,2 F,,2 | _F,2 _D,,2 E,2 =C,,2 | E,2 C,,2 E,2 _C,,2 | %12
 D,2 B,,,2 D,2 B,,,2 | _D,2 B,,,2 C,2 B,,,2 | _C,2 B,,,2 C,2 B,,2 | A,,2 _G,,2 =F,,2 G,,2 | %16
 =G,,6[K:treble] _B_A | _GB_d_A _B_d_ed | B_dBd _g_ed z |[K:bass] =G,,6[K:treble] _B_A | %20
 _B_d_e_d Bd_a_g | _b z z2[K:bass] =G,,2 C,,2 | G,,2 C,,2 ^G,,2 C,,2 | =A,,2 B,,2 =B,,2 =B,,,2 | %24
 =B,,2 =B,,,2 B,,2 C,2 | ^C,2 =A,,,2 C,2 D,2 | =E,2 ^F,2 G,2 =A,2 | _B,6 _E,,2 | %28
 B,,2 E,,2 B,,2 E,,2 | B,,2 E,,2 B,,2 E,,2 | B,,2 E,,2 B,,2 E,,2 | B,,2 E,,2 B,,2 E,,2 | %32
 B,,2 E,,2 B,,2 E,,2 | B,,2 E,,4 B,,2 | E,,4 B,,4 |[K:treble] g8 |] %36

